; generated by PrusaSlicer 2.3.0 on 2021-04-19 at 16:00:27 UTC

; 

; external perimeters extrusion width = 0.45mm
; perimeters extrusion width = 0.45mm
; infill extrusion width = 0.45mm
; solid infill extrusion width = 0.45mm
; top infill extrusion width = 0.45mm
; first layer extrusion width = 0.42mm

M201 X500 Y500 Z100 E5000 ; sets maximum accelerations, mm/sec^2
M203 X500 Y500 Z10 E60 ; sets maximum feedrates, mm/sec
M204 P500 R1000 T500 ; sets acceleration (P, T) and retract acceleration (R), mm/sec^2
M205 X8.00 Y8.00 Z0.40 E5.00 ; sets the jerk limits, mm/sec
M205 S0 T0 ; sets the minimum extruding and travel feed rate, mm/sec
M107
;TYPE:Custom
G90 ; use absolute coordinates
M83 ; extruder relative mode
M104 S150 ; set extruder temp for auto bed leveling
M140 S70 ; set bed temp
G28 ; home all
G29 ; auto bed levelling
G1 Z50 F240
G1 X2 Y10 F3000
M104 S240 ; set extruder temp
M190 S70 ; wait for bed temp
M109 S240 ; wait for extruder temp
G1 Z0.28 F240
G92 E0
G1 Y190 E15 F1500 ; intro line
G1 X2.3 F5000
G92 E0
G1 Y10 E15 F1200 ; intro line
G92 E0
G21 ; set units to millimeters
G90 ; use absolute coordinates
M83 ; use relative distances for extrusion
; Filament gcode
;LAYER_CHANGE
;Z:0.2
;HEIGHT:0.2
;BEFORE_LAYER_CHANGE
G92 E0
;0.2


G1 E-5.00000 F3600.000
G1 Z0.200 F9000.000
;AFTER_LAYER_CHANGE
;0.2
G1 X63.234 Y135.096
G1 E5.00000 F2400.000
;TYPE:Skirt
;WIDTH:0.42
G1 F1200.000
G1 X62.695 Y134.573 E0.02355
G1 X62.348 Y133.911 E0.02343
G1 X62.223 Y133.171 E0.02355
G1 X62.223 Y72.152 E1.91318
G1 X62.482 Y68.403 E0.11784
G1 X63.268 Y64.644 E0.12042
G1 X64.590 Y60.982 E0.12207
G1 X66.267 Y57.757 E0.11398
G1 X68.355 Y54.790 E0.11374
G1 X71.033 Y51.897 E0.12362
G1 X73.980 Y49.499 E0.11911
G1 X77.229 Y47.523 E0.11923
G1 X80.848 Y45.969 E0.12350
G1 X84.509 Y44.967 E0.11900
G1 X88.106 Y44.478 E0.11383
G1 X91.737 Y44.473 E0.11386
G1 X95.645 Y44.993 E0.12362
G1 X99.303 Y46.018 E0.11911
G1 X102.787 Y47.532 E0.11911
G1 X106.141 Y49.590 E0.12338
G1 X109.074 Y52.005 E0.11911
G1 X111.548 Y54.662 E0.11383
G1 X113.646 Y57.625 E0.11386
G1 X115.473 Y61.115 E0.12350
G1 X116.741 Y64.676 E0.11851
G1 X117.518 Y68.405 E0.11943
G1 X117.777 Y72.158 E0.11795
G1 X117.777 Y133.154 E1.91251
G1 X117.673 Y133.845 E0.02190
G1 X117.352 Y134.507 E0.02308
G1 X116.844 Y135.039 E0.02308
G1 X116.193 Y135.391 E0.02319
G1 X115.470 Y135.526 E0.02308
G1 X64.596 Y135.527 E1.59510
G1 X63.906 Y135.424 E0.02190
G1 X63.288 Y135.122 E0.02155
G1 E-3.50000 F3600.000
;WIPE_START
G1 F7200.000
G1 X62.695 Y134.573 E-0.38392
G1 X62.348 Y133.911 E-0.35495
G1 X62.223 Y133.171 E-0.35674
G1 X62.223 Y132.477 E-0.32939
;WIPE_END
G1 E-0.07500 F3600.000
G1 X60.221 Y134.982 F9000.000
G1 E5.00000 F2400.000
G1 F1200.000
G1 X59.887 Y133.661 E0.04273
G1 X59.887 Y72.111 E1.92985
G1 X60.185 Y67.965 E0.13035
G1 X61.050 Y63.902 E0.13025
G1 X62.332 Y60.303 E0.11977
G1 X64.073 Y56.900 E0.11986
G1 X64.377 Y56.374 E0.01906
G1 X66.534 Y53.317 E0.11729
G1 X69.456 Y50.174 E0.13457
G1 X72.776 Y47.489 E0.13387
G1 X76.135 Y45.459 E0.12303
G1 X79.750 Y43.875 E0.12378
G1 X83.698 Y42.744 E0.12875
G1 X87.902 Y42.151 E0.13311
G1 X92.124 Y42.152 E0.13239
G1 X96.293 Y42.742 E0.13201
G1 X99.971 Y43.776 E0.11980
G1 X103.485 Y45.281 E0.11986
G1 X104.031 Y45.548 E0.01906
G1 X107.226 Y47.491 E0.11725
G1 X110.422 Y50.060 E0.12857
G1 X113.262 Y53.068 E0.12972
G1 X115.678 Y56.460 E0.13057
G1 X117.592 Y60.129 E0.12975
G1 X118.994 Y64.053 E0.13065
G1 X119.275 Y65.142 E0.03525
G1 X119.818 Y67.978 E0.09054
G1 X120.113 Y72.112 E0.12995
G1 X120.113 Y133.556 E1.92654
G1 X119.968 Y134.454 E0.02852
G1 X119.376 Y135.735 E0.04427
G1 X118.425 Y136.790 E0.04454
G1 X117.232 Y137.530 E0.04400
G1 X115.911 Y137.864 E0.04273
G1 X64.194 Y137.864 E1.62152
G1 X63.297 Y137.719 E0.02852
G1 X62.015 Y137.126 E0.04427
G1 X60.960 Y136.175 E0.04454
G1 X60.252 Y135.033 E0.04212
G1 X60.578 Y134.859 F9000.000
G1 F1200.000
G1 X60.264 Y133.637 E0.03957
G1 X60.264 Y72.118 E1.92888
G1 X60.560 Y68.005 E0.12930
G1 X61.409 Y64.016 E0.12785
G1 X62.683 Y60.442 E0.11899
G1 X64.407 Y57.076 E0.11856
G1 X64.690 Y56.584 E0.01780
G1 X66.835 Y53.545 E0.11662
G1 X69.704 Y50.458 E0.13213
G1 X72.982 Y47.805 E0.13224
G1 X76.319 Y45.788 E0.12224
G1 X79.890 Y44.226 E0.12222
G1 X83.789 Y43.110 E0.12716
G1 X87.915 Y42.528 E0.13065
G1 X92.085 Y42.528 E0.13074
G1 X96.203 Y43.108 E0.13040
G1 X99.857 Y44.136 E0.11902
G1 X103.333 Y45.626 E0.11856
G1 X103.843 Y45.875 E0.01780
G1 X107.020 Y47.807 E0.11658
G1 X110.176 Y50.346 E0.12700
G1 X112.979 Y53.317 E0.12810
G1 X115.363 Y56.668 E0.12894
G1 X117.252 Y60.292 E0.12812
G1 X118.631 Y64.156 E0.12863
G1 X118.906 Y65.219 E0.03442
G1 X119.446 Y68.038 E0.09000
G1 X119.736 Y72.118 E0.12827
G1 X119.736 Y133.542 E1.92589
G1 X119.614 Y134.322 E0.02476
G1 X119.075 Y135.506 E0.04081
G1 X118.201 Y136.486 E0.04117
G1 X117.109 Y137.172 E0.04044
G1 X115.886 Y137.487 E0.03957
G1 X64.209 Y137.487 E1.62032
G1 X63.428 Y137.365 E0.02476
G1 X62.244 Y136.825 E0.04081
G1 X61.265 Y135.951 E0.04117
G1 X60.610 Y134.910 E0.03856
G1 X60.935 Y134.735 F9000.000
G1 F1200.000
G1 X60.641 Y133.612 E0.03639
G1 X60.641 Y72.125 E1.92790
G1 X60.932 Y68.070 E0.12745
G1 X61.769 Y64.131 E0.12627
G1 X63.025 Y60.602 E0.11744
G1 X64.741 Y57.252 E0.11803
G1 X65.004 Y56.794 E0.01655
G1 X67.136 Y53.773 E0.11594
G1 X69.971 Y50.725 E0.13052
G1 X73.189 Y48.121 E0.12979
G1 X76.482 Y46.129 E0.12067
G1 X80.030 Y44.576 E0.12143
G1 X83.880 Y43.476 E0.12556
G1 X87.955 Y42.903 E0.12901
G1 X92.045 Y42.903 E0.12826
G1 X96.113 Y43.475 E0.12881
G1 X99.720 Y44.487 E0.11745
G1 X103.180 Y45.970 E0.11803
G1 X103.655 Y46.202 E0.01655
G1 X106.813 Y48.122 E0.11591
G1 X109.929 Y50.631 E0.12543
G1 X112.696 Y53.567 E0.12648
G1 X115.035 Y56.854 E0.12651
G1 X116.901 Y60.431 E0.12650
G1 X118.268 Y64.258 E0.12742
G1 X118.536 Y65.296 E0.03359
G1 X119.073 Y68.098 E0.08946
G1 X119.359 Y72.125 E0.12659
G1 X119.359 Y133.527 E1.92520
G1 X119.246 Y134.236 E0.02253
G1 X118.745 Y135.322 E0.03748
G1 X117.939 Y136.214 E0.03771
G1 X116.984 Y136.815 E0.03537
G1 X115.862 Y137.110 E0.03639
G1 X64.224 Y137.110 E1.61907
G1 X63.514 Y136.997 E0.02253
G1 X62.429 Y136.496 E0.03748
G1 X61.537 Y135.689 E0.03771
G1 X60.967 Y134.786 E0.03349
G1 X61.287 Y134.587 F9000.000
G1 F1200.000
G1 X61.018 Y133.588 E0.03242
G1 X61.018 Y72.131 E1.92694
G1 X61.303 Y68.136 E0.12560
G1 X62.128 Y64.246 E0.12469
G1 X63.376 Y60.741 E0.11665
G1 X65.074 Y57.428 E0.11673
G1 X65.317 Y57.004 E0.01530
G1 X67.437 Y54.001 E0.11526
G1 X70.218 Y51.009 E0.12808
G1 X73.395 Y48.437 E0.12816
G1 X76.666 Y46.458 E0.11988
G1 X80.169 Y44.927 E0.11986
G1 X83.971 Y43.843 E0.12396
G1 X87.968 Y43.280 E0.12656
G1 X92.006 Y43.278 E0.12661
G1 X96.024 Y43.841 E0.12720
G1 X99.606 Y44.847 E0.11666
G1 X103.027 Y46.315 E0.11673
G1 X103.466 Y46.528 E0.01530
G1 X106.607 Y48.438 E0.11524
G1 X109.682 Y50.917 E0.12385
G1 X112.412 Y53.816 E0.12486
G1 X114.720 Y57.062 E0.12488
G1 X116.561 Y60.594 E0.12487
G1 X117.905 Y64.361 E0.12541
G1 X118.167 Y65.372 E0.03276
G1 X118.701 Y68.158 E0.08892
G1 X118.982 Y72.132 E0.12491
G1 X118.982 Y133.511 E1.92451
G1 X118.878 Y134.149 E0.02026
G1 X118.417 Y135.135 E0.03413
G1 X117.679 Y135.939 E0.03422
G1 X116.810 Y136.480 E0.03208
G1 X115.838 Y136.733 E0.03150
G1 X64.239 Y136.733 E1.61784
G1 X63.601 Y136.629 E0.02026
G1 X62.616 Y136.167 E0.03413
G1 X61.811 Y135.429 E0.03422
G1 X61.319 Y134.638 E0.02924
G1 X62.848 Y135.869 F9000.000
G1 F1200.000
G1 X62.085 Y135.169 E0.03248
G1 X61.627 Y134.436 E0.02709
G1 X61.395 Y133.563 E0.02831
G1 X61.395 Y72.138 E1.92594
G1 X61.675 Y68.201 E0.12375
G1 X62.488 Y64.360 E0.12310
G1 X63.727 Y60.879 E0.11586
G1 X65.408 Y57.604 E0.11543
G1 X65.630 Y57.214 E0.01406
G1 X67.737 Y54.229 E0.11458
G1 X70.485 Y51.276 E0.12647
G1 X73.601 Y48.753 E0.12571
G1 X76.829 Y46.799 E0.11830
G1 X80.308 Y45.277 E0.11907
G1 X84.062 Y44.209 E0.12236
G1 X88.007 Y43.655 E0.12493
G1 X91.967 Y43.653 E0.12415
G1 X95.934 Y44.208 E0.12560
G1 X99.492 Y45.206 E0.11587
G1 X102.875 Y46.660 E0.11543
G1 X103.278 Y46.855 E0.01406
G1 X106.400 Y48.754 E0.11456
G1 X109.435 Y51.202 E0.12227
G1 X112.129 Y54.065 E0.12324
G1 X114.405 Y57.270 E0.12326
G1 X116.220 Y60.756 E0.12325
G1 X117.543 Y64.464 E0.12341
G1 X117.798 Y65.449 E0.03193
G1 X118.328 Y68.218 E0.08837
G1 X118.605 Y72.138 E0.12324
G1 X118.605 Y133.497 E1.92387
G1 X118.524 Y134.017 E0.01649
G1 X118.118 Y134.902 E0.03054
G1 X117.418 Y135.666 E0.03248
G1 X116.685 Y136.123 E0.02709
G1 X115.813 Y136.356 E0.02831
G1 X64.253 Y136.356 E1.61661
G1 X63.734 Y136.275 E0.01649
G1 X62.903 Y135.894 E0.02866
G1 X63.062 Y135.553 F9000.000
G1 F1200.000
G1 X62.360 Y134.910 E0.02984
G1 X61.983 Y134.309 E0.02226
G1 X61.772 Y133.537 E0.02508
G1 X61.772 Y72.145 E1.92492
G1 X62.046 Y68.266 E0.12191
G1 X62.847 Y64.475 E0.12151
G1 X64.068 Y61.040 E0.11429
G1 X65.741 Y57.779 E0.11491
G1 X65.944 Y57.424 E0.01282
G1 X68.038 Y54.457 E0.11389
G1 X70.733 Y51.561 E0.12404
G1 X73.808 Y49.069 E0.12408
G1 X77.013 Y47.128 E0.11750
G1 X80.447 Y45.628 E0.11750
G1 X84.152 Y44.575 E0.12076
G1 X88.046 Y44.030 E0.12329
G1 X91.954 Y44.030 E0.12251
G1 X95.845 Y44.574 E0.12318
G1 X99.355 Y45.558 E0.11430
G1 X102.722 Y47.005 E0.11492
G1 X103.090 Y47.182 E0.01282
G1 X106.193 Y49.069 E0.11387
G1 X109.188 Y51.487 E0.12069
G1 X111.845 Y54.313 E0.12162
G1 X114.090 Y57.477 E0.12164
G1 X115.869 Y60.895 E0.12082
G1 X117.180 Y64.567 E0.12222
G1 X117.429 Y65.526 E0.03109
G1 X117.956 Y68.277 E0.08783
G1 X118.228 Y72.145 E0.12156
G1 X118.228 Y133.482 E1.92318
G1 X118.156 Y133.930 E0.01424
G1 X117.790 Y134.714 E0.02714
G1 X117.160 Y135.390 E0.02897
G1 X116.558 Y135.767 E0.02226
G1 X115.787 Y135.978 E0.02508
G1 X64.269 Y135.978 E1.61532
G1 X63.820 Y135.907 E0.01424
G1 X63.117 Y135.578 E0.02435
G1 X63.442 Y134.899 F9000.000
G1 F1200.000
G1 X62.917 Y134.400 E0.02272
G1 X62.692 Y134.046 E0.01314
G1 X62.526 Y133.482 E0.01842
G1 X62.526 Y72.158 E1.92278
G1 X62.793 Y68.371 E0.11904
G1 X63.566 Y64.703 E0.11752
G1 X64.770 Y61.316 E0.11271
G1 X66.571 Y57.843 E0.12266
G1 X68.640 Y54.912 E0.11248
G1 X71.248 Y52.112 E0.11999
G1 X74.220 Y49.700 E0.12002
G1 X77.360 Y47.797 E0.11511
G1 X80.725 Y46.330 E0.11512
G1 X84.333 Y45.308 E0.11755
G1 X88.099 Y44.783 E0.11922
G1 X91.901 Y44.783 E0.11924
G1 X95.666 Y45.307 E0.11916
G1 X99.127 Y46.277 E0.11271
G1 X102.715 Y47.837 E0.12266
G1 X105.780 Y49.701 E0.11247
G1 X108.694 Y52.058 E0.11751
G1 X111.278 Y54.811 E0.11838
G1 X113.460 Y57.892 E0.11839
G1 X115.188 Y61.220 E0.11759
G1 X116.454 Y64.773 E0.11824
G1 X116.690 Y65.680 E0.02942
G1 X117.211 Y68.397 E0.08673
G1 X117.474 Y72.158 E0.11820
G1 X117.474 Y133.454 E1.92190
G1 X117.435 Y133.710 E0.00812
G1 X117.136 Y134.334 E0.02167
G1 X116.649 Y134.834 E0.02188
G1 X116.296 Y135.058 E0.01314
G1 X115.732 Y135.224 E0.01842
G1 X64.296 Y135.224 E1.61273
G1 X64.040 Y135.185 E0.00812
G1 X63.496 Y134.925 E0.01890
G1 X64.130 Y134.818 F9000.000
G1 F1200.000
G1 X63.613 Y134.563 E0.01806
G1 X63.198 Y134.148 E0.01841
G1 X63.044 Y133.909 E0.00892
G1 X62.903 Y133.453 E0.01496
G1 X62.903 Y72.164 E1.92165
G1 X63.165 Y68.436 E0.11720
G1 X63.926 Y64.818 E0.11592
G1 X65.121 Y61.454 E0.11191
G1 X66.885 Y58.052 E0.12015
G1 X68.940 Y55.140 E0.11176
G1 X71.515 Y52.379 E0.11838
G1 X74.427 Y50.016 E0.11758
G1 X77.522 Y48.138 E0.11352
G1 X80.864 Y46.680 E0.11432
G1 X84.423 Y45.674 E0.11594
G1 X88.137 Y45.158 E0.11759
G1 X91.863 Y45.158 E0.11680
G1 X95.576 Y45.674 E0.11756
G1 X99.013 Y46.637 E0.11191
G1 X102.528 Y48.164 E0.12015
G1 X105.573 Y50.016 E0.11176
G1 X108.447 Y52.342 E0.11592
G1 X110.977 Y55.039 E0.11596
G1 X113.131 Y58.078 E0.11677
G1 X114.837 Y61.359 E0.11597
G1 X116.091 Y64.876 E0.11706
G1 X116.321 Y65.758 E0.02857
G1 X116.839 Y68.457 E0.08618
G1 X117.097 Y72.165 E0.11652
G1 X117.097 Y133.438 E1.92120
G1 X117.067 Y133.621 E0.00579
G1 X116.813 Y134.137 E0.01806
G1 X116.398 Y134.553 E0.01841
G1 X116.158 Y134.707 E0.00892
G1 X115.702 Y134.847 E0.01496
G1 X64.312 Y134.847 E1.61131
G1 X64.189 Y134.827 E0.00391
G1 X64.221 Y134.451 F9000.000
G1 F1200.000
G1 X63.857 Y134.274 E0.01270
G1 X63.478 Y133.895 E0.01682
G1 X63.393 Y133.765 E0.00484
G1 X63.280 Y133.421 E0.01136
G1 X63.280 Y72.171 E1.92045
G1 X63.537 Y68.500 E0.11537
G1 X64.285 Y64.932 E0.11432
G1 X65.472 Y61.593 E0.11111
G1 X67.199 Y58.261 E0.11765
G1 X69.241 Y55.368 E0.11103
G1 X71.763 Y52.663 E0.11595
G1 X74.634 Y50.332 E0.11596
G1 X77.707 Y48.467 E0.11272
G1 X81.003 Y47.031 E0.11272
G1 X84.513 Y46.041 E0.11434
G1 X88.151 Y45.535 E0.11516
G1 X91.824 Y45.533 E0.11517
G1 X95.487 Y46.040 E0.11595
G1 X98.899 Y46.997 E0.11111
G1 X102.341 Y48.492 E0.11765
G1 X105.366 Y50.332 E0.11103
G1 X108.199 Y52.627 E0.11432
G1 X110.693 Y55.288 E0.11434
G1 X112.816 Y58.285 E0.11515
G1 X114.497 Y61.521 E0.11435
G1 X115.728 Y64.979 E0.11508
G1 X115.952 Y65.835 E0.02773
G1 X116.466 Y68.517 E0.08563
G1 X116.720 Y72.171 E0.11485
G1 X116.720 Y133.421 E1.92045
G1 X116.701 Y133.529 E0.00345
G1 X116.524 Y133.893 E0.01270
G1 X116.144 Y134.273 E0.01682
G1 X116.015 Y134.357 E0.00484
G1 X115.671 Y134.470 E0.01136
G1 X64.280 Y134.462 E1.61131
G1 X64.318 Y134.087 F9000.000
G1 F1200.000
G1 X64.100 Y133.984 E0.00757
G1 X63.757 Y133.640 E0.01522
G1 X63.657 Y133.386 E0.00856
G1 X63.657 Y72.178 E1.91915
G1 X63.908 Y68.565 E0.11354
G1 X64.645 Y65.046 E0.11272
G1 X65.823 Y61.731 E0.11031
G1 X67.513 Y58.470 E0.11516
G1 X69.542 Y55.596 E0.11029
G1 X72.011 Y52.947 E0.11353
G1 X74.841 Y50.647 E0.11435
G1 X77.869 Y48.807 E0.11111
G1 X81.142 Y47.382 E0.11192
G1 X84.602 Y46.407 E0.11273
G1 X88.189 Y45.910 E0.11354
G1 X91.811 Y45.910 E0.11354
G1 X95.397 Y46.407 E0.11353
G1 X98.785 Y47.356 E0.11031
G1 X102.154 Y48.820 E0.11517
G1 X105.159 Y50.647 E0.11029
G1 X107.952 Y52.912 E0.11272
G1 X110.409 Y55.536 E0.11273
G1 X112.500 Y58.492 E0.11353
G1 X114.156 Y61.683 E0.11273
G1 X115.366 Y65.082 E0.11312
G1 X115.583 Y65.912 E0.02689
G1 X116.094 Y68.577 E0.08508
G1 X116.343 Y72.178 E0.11317
G1 X116.336 Y133.432 E1.92059
G1 X116.233 Y133.650 E0.00757
G1 X115.890 Y133.994 E0.01522
G1 X115.636 Y134.093 E0.00856
G1 X64.378 Y134.093 E1.60715
G1 X64.337 Y133.687 F9000.000
G1 F1200.000
G1 X64.063 Y133.413 E0.01215
G1 X64.034 Y133.344 E0.00235
G1 X64.034 Y72.184 E1.91763
G1 X64.280 Y68.629 E0.11172
G1 X65.005 Y65.160 E0.11111
G1 X66.174 Y61.869 E0.10951
G1 X67.828 Y58.678 E0.11270
G1 X69.842 Y55.824 E0.10953
G1 X72.277 Y53.214 E0.11192
G1 X75.047 Y50.963 E0.11192
G1 X78.054 Y49.136 E0.11031
G1 X81.280 Y47.733 E0.11031
G1 X84.692 Y46.774 E0.11112
G1 X88.228 Y46.286 E0.11192
G1 X91.798 Y46.288 E0.11192
G1 X95.308 Y46.774 E0.11111
G1 X98.671 Y47.716 E0.10951
G1 X101.968 Y49.148 E0.11270
G1 X104.953 Y50.963 E0.10953
G1 X107.704 Y53.197 E0.11111
G1 X110.125 Y55.784 E0.11112
G1 X112.172 Y58.677 E0.11112
G1 X113.805 Y61.822 E0.11111
G1 X115.003 Y65.186 E0.11195
G1 X115.214 Y65.989 E0.02604
G1 X115.721 Y68.637 E0.08452
G1 X115.966 Y72.184 E0.11149
G1 X115.966 Y133.344 E1.91763
G1 X115.937 Y133.413 E0.00235
G1 X115.663 Y133.687 E0.01215
G1 X115.594 Y133.716 E0.00235
G1 X64.392 Y133.710 E1.60538
G1 X64.522 Y133.339 F9000.000
G1 F1200.000
G1 X64.411 Y133.228 E0.00490
G1 X64.411 Y72.190 E1.91381
G1 X64.652 Y68.693 E0.10990
G1 X65.364 Y65.274 E0.10950
G1 X66.525 Y62.008 E0.10870
G1 X68.143 Y58.885 E0.11027
G1 X70.143 Y56.052 E0.10873
G1 X72.525 Y53.498 E0.10950
G1 X75.254 Y51.278 E0.11031
G1 X78.216 Y49.477 E0.10870
G1 X81.419 Y48.084 E0.10950
G1 X84.781 Y47.140 E0.10950
G1 X88.241 Y46.663 E0.10950
G1 X91.759 Y46.663 E0.11030
G1 X95.219 Y47.140 E0.10950
G1 X98.557 Y48.075 E0.10870
G1 X101.783 Y49.476 E0.11027
G1 X104.746 Y51.278 E0.10873
G1 X107.456 Y53.481 E0.10950
G1 X109.841 Y56.032 E0.10950
G1 X111.856 Y58.884 E0.10950
G1 X113.465 Y61.984 E0.10950
G1 X114.640 Y65.290 E0.10999
G1 X114.845 Y66.066 E0.02519
G1 X115.349 Y68.696 E0.08396
G1 X115.589 Y72.190 E0.10981
G1 X115.589 Y133.228 E1.91381
G1 X115.478 Y133.339 E0.00490
G1 X64.582 Y133.339 E1.59581
G1 X64.910 Y132.840 F9000.000
;TYPE:External perimeter
G1 F1200.000
G1 X64.910 Y72.201 E1.90131
G1 X65.144 Y68.774 E0.10770
G1 X65.841 Y65.421 E0.10737
G1 X66.988 Y62.195 E0.10737
G1 X68.563 Y59.154 E0.10737
G1 X70.487 Y56.429 E0.10461
